X:1
T:Title
%%score { ( 1 3 ) | ( 2 4 ) }
L:1/8
M:4/4
K:C
V:1 treble nm="Grand Piano"
V:3 treble 
V:2 bass 
V:4 bass 
V:1
 z4 z2[Q:1/4=100] [CE][DF] | [EG]2 [_E^F][=EG] [Ec]2 [GB][=FA] | [EG]3 [DF] [CE]2 [B,D][CE] | %3
 [DF]2 [DF][^CE] [DF]2 [B,G][DF] | [CE]6 [CE][DF] | [EG]2 [_E^F][=EG] [Ec]2 [Ec][GB] | %6
[M:3/4] [FA]2 [Ac][FA] [EG]2 |[M:1/4] [Ec][Ec] |[M:4/4] B2 BB [Gd]2 [C^FA][DFB] | %9
[M:7/8] G2- [EG-]2 [FG]3 |[M:1/4] EG |[M:4/4] [Ec]6 z2 | [EG]4 z4 | [FG]6 z2 | [EG]6 z2 | %15
 [Ge][Ge] [Ge]2 [Ec]2 [Ec][GB] | [FA][Ac][Ac][FA] [EG]2 [EG][EG] | G<G A2 B<B d2 |[M:3/4] [Ec]6 |] %19
V:2
 z4 z2 [C,G,][C,G,] | [C,C]2 [C,A,][C,G,] [C,G,]2 [C,C][C,C] | %2
 [C,C]3 [C,G,] [C,G,]2 [G,,G,][G,,G,] | [G,,G,]2 [G,,G,][G,,G,] [G,,G,]2 [G,,G,][G,,G,] | %4
 [C,G,]6 [C,G,][C,G,] | [C,C]2 [C,C][C,C] [C,G,]2 [C,G,][E,C] |[M:3/4] [F,C]2 [F,C][F,C] [C,C]2 | %7
[M:1/4] [C,G,][C,G,] |[M:4/4] [D,G,D]2 [D,G,D][D,G,D] [D,B,]2 D,D, |[M:7/8] z D C2 D3 |[M:1/4] CE | %11
[M:4/4] [C,G,]2 C,2 z [CG][C,C][C,C] | [C,C]2 C,2 [C,G,C]2[K:treble] EF | G,2 G,2 G,2 FF | %14
 C,2 C,2 C,2 [C,C][C,C] | [C,C][C,C] [C,C]2 [C,G,]2 [C,G,][E,C] | %16
 [F,C][F,C][F,C][F,C] [C,C]2 [C,C][C,C] | [G,B,F]<[G,B,F] [G,CF]2 [G,DF]<[G,DF][K:bass] [G,,B,F]2 | %18
[M:3/4] [C,C]6 |] %19
V:3
 x8 | x8 | x8 | x8 | x8 | x8 |[M:3/4] x6 |[M:1/4] x2 |[M:4/4] x8 |[M:7/8] B,2 z z z z2 | %10
[M:1/4] x2 |[M:4/4] z2 G,2 G,B[GB][FA] | z2 C2 E2 GA | B,2 B,2 B,2 GA | C2 C2 C2 [EG][Ec] | x8 | %16
 x8 | x8 |[M:3/4] x6 |] %19
V:4
 x8 | x8 | x8 | x8 | x8 | x8 |[M:3/4] x6 |[M:1/4] x2 |[M:4/4] x8 |[M:7/8] G,,-G,,-G,,- G,,- G,,3 | %10
[M:1/4] x2 |[M:4/4] z4 C,2 z2 | x6[K:treble] x2 | x8 | x8 | x8 | x8 | x6[K:bass] x2 |[M:3/4] x6 |] %19

